X:1
T:Title
%%score { 1 | 2 }
L:1/8
M:4/4
K:Eb
V:1 treble nm="Grand Piano"
V:2 bass 
V:1
 z4 z2[Q:1/4=94] [EG][FA] | [GB][GB][GB][Ac] [GB]GEF | GG[EG][DF] E2 [GB][GB] | cccd ee[Bd][Ac] | %4
[M:9/8] [GB][Ac][GB] [EG] [DF]2- [DF][EG][FA] |[M:4/4] [GB][GB][GB][Ac] [GB]GEF | %6
[M:9/8] GG[FA] [GB] [Ac]2- [Ac][Ad][Ad] |[M:17/16] [Ge][Ge][Bd][Ac][GB][Ge]3/2EF | %8
[M:7/8] G<G[EG]>[DF] E3 |[M:1/4] GA |[M:4/4] B<B B>B B2 AG |[M:3/4] c<c c>c c2 |[M:1/4] [Ad][Ad] | %13
[M:17/16] [Ge][Ge][Bd][Ac][GB][Ge]3/2EF | %14
[M:3/4] G<G [EG]>[DF] E2[Q:1/4=93][Q:1/4=91][Q:1/4=90][Q:1/4=88][Q:1/4=87][Q:1/4=86][Q:1/4=84][Q:1/4=83][Q:1/4=82][Q:1/4=80][Q:1/4=79][Q:1/4=77][Q:1/4=76][Q:1/4=75][Q:1/4=73][Q:1/4=72] |] %15
V:2
 z4 z2 [E,B,][E,B,] | [E,E][E,E][E,E][E,E] [E,E][E,B,E][E,G,][E,A,E] | %2
 [E,B,E][E,B,E][B,,B,][B,,A,] [E,G,]2 [E,E][E,E] | %3
 [A,EA][A,EA][A,EA][A,DA] [A,CA][A,CA][K:bass][A,D][A,E] | %4
[M:9/8] [E,E][E,E][E,E] [E,B,] [B,,B,]2- [B,,B,][E,B,][E,B,] | %5
[M:4/4] [E,E][E,E][E,E][E,E] [E,E][E,B,E][E,G,][E,A,E] | %6
[M:9/8] [E,B,E][E,B,E][E,B,] [E,E] [A,E]2- [A,E][F,B,][F,B,] | %7
[M:17/16] [E,B,][E,B,][E,C][E,D][E,E][E,B,]3/2[G,B,][A,CE] | %8
[M:7/8] [B,E]<[B,E][B,,B,]>[B,,A,] [E,G,]3 |[M:1/4] [E,B,E][E,A,E] | %10
[M:4/4] [E,G,E]<[E,G,E] [E,G,E]>[E,G,E] [E,G,E]2 [E,CE][E,B,E] | %11
[M:3/4] [A,E]<[A,E] [A,E]>[A,E] [A,E]2 |[M:1/4] [F,B,][F,B,] | %13
[M:17/16] [E,B,][E,B,][E,C][E,D][E,E][E,B,]3/2[G,B,][A,CE] | %14
[M:3/4] [B,E]<[B,E] [B,,B,]>[B,,A,] [E,G,]2 |] %15

